flaticon/household/pipe.svg

<svg xmlns="http://www.w3.org/2000/svg" width="32" height="32" viewBox="0 0 24 24">
    <path d="M6.230469 18.574219C6.152344 18.464844 6.03125 18.402344 5.898438 18.402344 5.765625 18.402344 5.640625 18.464844 5.566406 18.574219L4.375 20.257812C3.601562 21.332031 3.617188 22.589844 4.417969 23.386719 4.824219 23.796875 5.363281 24 5.898438 24 6.433594 24 6.972656 23.796875 7.378906 23.386719 7.941406 22.828125 8.40625 21.832031 7.425781 20.261719zM6.804688 22.8125C6.304688 23.3125 5.492188 23.3125 4.992188 22.8125 4.476562 22.296875 4.492188 21.480469 5.035156 20.730469L5.898438 19.511719 6.746094 20.710938C7.574219 22.042969 6.996094 22.621094 6.804688 22.8125zM22.984375 10.578125L21.761719 10.578125 21.761719 9.761719C21.761719 9.539062 21.582031 9.355469 21.355469 9.355469L18.914062 9.355469C18.691406 9.355469 18.507812 9.539062 18.507812 9.761719L18.507812 10.578125 12.191406 10.578125C11.636719 10.578125 11.1875 10.125 11.1875 9.570312L11.1875 4.476562 12 4.476562C12.222656 4.476562 12.40625 4.292969 12.40625 4.066406L12.40625 1.628906C12.40625 1.402344 12.222656 1.21875 12 1.21875L11.1875 1.21875 11.1875 0 3.863281 0 3.863281 1.21875 3.050781 1.21875C2.824219 1.21875 2.644531 1.402344 2.644531 1.628906L2.644531 4.066406C2.644531 4.292969 2.824219 4.476562 3.050781 4.476562L3.863281 4.476562 3.863281 11.972656C3.863281 13.789062 4.6875 15.417969 5.980469 16.507812 6.027344 16.570312 6.089844 16.621094 6.164062 16.652344 7.167969 17.429688 8.425781 17.898438 9.789062 17.898438L18.507812 17.898438 18.507812 18.710938C18.507812 18.9375 18.691406 19.121094 18.914062 19.121094L21.355469 19.121094C21.582031 19.121094 21.761719 18.9375 21.761719 18.710938L21.761719 17.898438 22.984375 17.898438zM4.675781.8125L10.371094.8125 10.371094 1.21875 4.675781 1.21875zM3.457031 3.660156L3.457031 2.035156 11.59375 2.035156 11.59375 3.660156zM9.789062 17.085938C8.632812 17.085938 7.570312 16.695312 6.710938 16.042969L6.710938 15.050781 7.933594 15.050781C8.15625 15.050781 8.339844 14.871094 8.339844 14.644531L8.339844 13.425781 9.558594 13.425781C9.785156 13.425781 9.964844 13.242188 9.964844 13.015625 9.964844 12.792969 9.785156 12.609375 9.558594 12.609375L7.933594 12.609375C7.707031 12.609375 7.523438 12.792969 7.523438 13.015625L7.523438 14.238281 6.304688 14.238281C6.082031 14.238281 5.898438 14.417969 5.898438 14.644531L5.898438 15.28125C5.136719 14.386719 4.675781 13.234375 4.675781 11.972656L4.675781 4.476562 10.371094 4.476562 10.371094 9.570312C10.371094 10.574219 11.1875 11.390625 12.191406 11.390625L18.507812 11.390625 18.507812 17.085938zM20.949219 18.304688L19.324219 18.304688 19.324219 10.167969 20.949219 10.167969zM22.167969 17.085938L21.761719 17.085938 21.761719 11.390625 22.167969 11.390625zM2.761719 16.796875L1.949219 17.609375C1.789062 17.769531 1.789062 18.027344 1.949219 18.1875 2.027344 18.265625 2.132812 18.304688 2.238281 18.304688 2.339844 18.304688 2.445312 18.265625 2.523438 18.1875L3.339844 17.371094C3.496094 17.214844 3.496094 16.957031 3.339844 16.796875 3.179688 16.636719 2.921875 16.636719 2.761719 16.796875zM3.050781 15.863281C3.050781 15.640625 2.867188 15.457031 2.644531 15.457031L1.421875 15.457031C1.199219 15.457031 1.015625 15.640625 1.015625 15.863281 1.015625 16.089844 1.199219 16.273438 1.421875 16.273438L2.644531 16.273438C2.867188 16.273438 3.050781 16.089844 3.050781 15.863281zM2.523438 13.542969C2.367188 13.382812 2.109375 13.382812 1.949219 13.542969 1.789062 13.703125 1.789062 13.960938 1.949219 14.117188L2.761719 14.933594C2.84375 15.011719 2.945312 15.050781 3.050781 15.050781 3.15625 15.050781 3.257812 15.011719 3.339844 14.933594 3.496094 14.773438 3.496094 14.515625 3.339844 14.355469zM2.523438 13.542969"/>
</svg>

<svg xmlns="http://www.w3.org/2000/svg" width="32" height="32" viewBox="0 0 24 24">
    <path d="M6.23 18.574a.404.404 0 0 0-.332-.172.399.399 0 0 0-.332.172l-1.191 1.684c-.773 1.074-.758 2.332.043 3.129.406.41.945.613 1.48.613.536 0 1.075-.203 1.48-.613.563-.559 1.028-1.555.048-3.125zm.575 4.238c-.5.5-1.313.5-1.813 0-.515-.515-.5-1.332.043-2.082l.863-1.218.848 1.199c.828 1.332.25 1.91.059 2.102zm0 0M22.984 10.578h-1.222v-.816a.406.406 0 0 0-.407-.407h-2.44a.408.408 0 0 0-.407.407v.816H12.19a1.007 1.007 0 0 1-1.004-1.008V4.477H12a.41.41 0 0 0 .406-.41V1.628a.41.41 0 0 0-.406-.41h-.813V0H3.864v1.219h-.812a.407.407 0 0 0-.406.41v2.437c0 .227.18.41.406.41h.812v7.497c0 1.816.825 3.445 2.117 4.535.047.062.11.113.184.144a5.907 5.907 0 0 0 3.625 1.246h8.719v.813c0 .227.183.41.406.41h2.441a.407.407 0 0 0 .407-.41v-.813h1.222zM4.676.813h5.695v.406H4.676zM3.457 3.66V2.035h8.137V3.66zm6.332 13.426a5.07 5.07 0 0 1-3.078-1.043v-.992h1.223c.222 0 .406-.18.406-.406v-1.22h1.219a.407.407 0 0 0 .406-.41.406.406 0 0 0-.406-.406H7.934a.41.41 0 0 0-.41.407v1.222h-1.22a.406.406 0 0 0-.406.407v.636a5.083 5.083 0 0 1-1.222-3.308V4.477h5.695V9.57c0 1.004.816 1.82 1.82 1.82h6.317v5.696zm11.16 1.219h-1.625v-8.137h1.625zm1.219-1.22h-.406v-5.694h.406zm0 0M2.762 16.797l-.813.812a.408.408 0 0 0 .574.578l.817-.816a.408.408 0 0 0-.578-.574zm0 0M3.05 15.863a.408.408 0 0 0-.405-.406H1.422a.408.408 0 0 0 0 .816h1.223a.41.41 0 0 0 .406-.41zm0 0M2.523 13.543a.403.403 0 0 0-.574 0 .403.403 0 0 0 0 .574l.813.817a.414.414 0 0 0 .578 0 .415.415 0 0 0 0-.579zm0 0"/>
</svg>
